X: 5
T:Dill Pickle Rag
% Nottingham Music Database
S:via PR
M:4/4
L:1/4
K:G
Bc ^c|:"G"d/2e/2g/2d/2 e/2g/2d/2e/2|g/2d/2e/2g/2 -g/2e/2d|\
"Em"G/2A/2B/2G/2 A/2B/2G/2A/2|B/2G/2A/2B/2 -B/2A/2G|
"D"D/2E/2F/2D/2 E/2F/2D/2E/2|"D"F/2D/2E/2F/2 -F/2E/2D|\
 [1"G"G/2F/2G/2E/2 -"E"E/2F/2G/2^G/2|"A"A/2^G/2A/2d/2 -"D"d/2B/2c/2^c/2:|
 [2"A"A/2^G/2A/2d/2 -"D"d/2B/2A|"G"G2 -G/2G/2F/2E/2|:"D"D_E =EF|\
"G"Ge/2d/2 -d/2e/2d|"D"Fe/2d/2 -d/2e/2d|
"G"Ge/2d/2 -d/2e/2d|"D"D/2A/2E/2A/2 =F/2A/2^F/2A/2|"G"Ge/2d/2 -d/2e/2d|\
 [1"A"A/2B/2^c/2A/2 B/2c3/2|"D"d2 -d/2G/2F/2E/2:|
 [2"D"d/2e/2f/2d/2 e/2f3/2|"G"g4|:\
K:C
"C"c/2A/2G/2c/2 A/2G/2E/2F/2|G/2E/2G/2A/2 -A/2G/2E|"G"D/2^C/2D/2G/2 -G/2E/2D|
"C"C2 AB|\
K:C
"C"c/2A/2G/2c/2 A/2G/2E/2F/2|G/2E/2G/2A/2 -A/2G/2E|"D"A/2^G/2A/2d/2 -d/2B/2A|
"G"G2 AB|\
K:C
"C"c/2A/2G/2c/2 A/2G/2E/2F/2|G/2E/2G/2A/2 -A/2G/2E|"G"D/2^C/2D/2G/2 -G/2E/2D|
"C"C2 cB|"Am"AA/2B/2 c/2B/2c/2d/2|e/2^d/2e/2a/2 -a/2g/2e|\
"D"d/2^c/2d/2g/2 -"G"g/2e/2d| [1"C"c3A/2B/2:|[2"C"c3z||


